flaticon/technology/sound-card.svg

<svg xmlns="http://www.w3.org/2000/svg" width="32" height="32" viewBox="0 0 24 24">
    <path d="M3.199219 16.800781C3.199219 17.019531 3.019531 17.199219 2.800781 17.199219 2.578125 17.199219 2.398438 17.019531 2.398438 16.800781 2.398438 16.578125 2.578125 16.398438 2.800781 16.398438 3.019531 16.398438 3.199219 16.578125 3.199219 16.800781zM22.800781 6.398438C22.800781 6.621094 22.621094 6.800781 22.398438 6.800781 22.179688 6.800781 22 6.621094 22 6.398438 22 6.179688 22.179688 6 22.398438 6 22.621094 6 22.800781 6.179688 22.800781 6.398438zM22.800781 16.800781C22.800781 17.019531 22.621094 17.199219 22.398438 17.199219 22.179688 17.199219 22 17.019531 22 16.800781 22 16.578125 22.179688 16.398438 22.398438 16.398438 22.621094 16.398438 22.800781 16.578125 22.800781 16.800781zM22.800781 16.800781"/>
    <path d="M 24 4.800781 L 2 4.800781 L 2 3.601562 C 2 3.378906 1.820312 3.199219 1.601562 3.199219 L 0.398438 3.199219 C 0.179688 3.199219 0 3.378906 0 3.601562 C 0 3.820312 0.179688 4 0.398438 4 L 1.199219 4 L 1.199219 6 L 0 6 L 0 8.398438 L 1.199219 8.398438 L 1.199219 8.800781 L 0 8.800781 L 0 11.199219 L 1.199219 11.199219 L 1.199219 11.601562 L 0 11.601562 L 0 14 L 1.199219 14 L 1.199219 20.398438 C 1.199219 20.621094 1.378906 20.800781 1.601562 20.800781 C 1.820312 20.800781 2 20.621094 2 20.398438 L 2 18.398438 L 4.398438 18.398438 L 4.398438 20 L 14.800781 20 L 14.800781 18.398438 L 24 18.398438 Z M 2 6.800781 L 2.800781 6.800781 L 2.800781 7.601562 L 2 7.601562 Z M 0.800781 7.601562 L 0.800781 6.800781 L 1.199219 6.800781 L 1.199219 7.601562 Z M 2 9.601562 L 2.800781 9.601562 L 2.800781 10.398438 L 2 10.398438 Z M 0.800781 10.398438 L 0.800781 9.601562 L 1.199219 9.601562 L 1.199219 10.398438 Z M 2 12.398438 L 2.800781 12.398438 L 2.800781 13.199219 L 2 13.199219 Z M 0.800781 13.199219 L 0.800781 12.398438 L 1.199219 12.398438 L 1.199219 13.199219 Z M 14 19.199219 L 13.601562 19.199219 L 13.601562 18.800781 L 12.800781 18.800781 L 12.800781 19.199219 L 12.398438 19.199219 L 12.398438 18.800781 L 11.601562 18.800781 L 11.601562 19.199219 L 11.199219 19.199219 L 11.199219 18.800781 L 10.398438 18.800781 L 10.398438 19.199219 L 10 19.199219 L 10 18.800781 L 9.199219 18.800781 L 9.199219 19.199219 L 8.800781 19.199219 L 8.800781 18.800781 L 8 18.800781 L 8 19.199219 L 7.601562 19.199219 L 7.601562 18.800781 L 6.800781 18.800781 L 6.800781 19.199219 L 6.398438 19.199219 L 6.398438 18.800781 L 5.601562 18.800781 L 5.601562 19.199219 L 5.199219 19.199219 L 5.199219 18.398438 L 14 18.398438 Z M 23.199219 17.601562 L 2 17.601562 L 2 14 L 3.601562 14 L 3.601562 11.601562 L 2 11.601562 L 2 11.199219 L 3.601562 11.199219 L 3.601562 8.800781 L 2 8.800781 L 2 8.398438 L 3.601562 8.398438 L 3.601562 6 L 2 6 L 2 5.601562 L 23.199219 5.601562 Z M 23.199219 17.601562"/>
    <path d="M20.398438 6.398438L21.199219 6.398438 21.199219 14.800781 20.398438 14.800781zM19.199219 6.398438L20 6.398438 20 14.800781 19.199219 14.800781zM18 6.398438L18.800781 6.398438 18.800781 14.800781 18 14.800781zM16.800781 6.398438L17.601562 6.398438 17.601562 14.800781 16.800781 14.800781zM11.601562 11.199219L12.398438 11.199219 12.398438 10.398438 12.800781 10.398438 12.800781 11.199219 13.601562 11.199219 13.601562 10.398438 14 10.398438 14 11.199219 14.800781 11.199219 14.800781 10.398438 15.601562 10.398438 15.601562 7.199219 14.800781 7.199219 14.800781 6.398438 14 6.398438 14 7.199219 13.601562 7.199219 13.601562 6.398438 12.800781 6.398438 12.800781 7.199219 12.398438 7.199219 12.398438 6.398438 11.601562 6.398438 11.601562 7.199219 10.800781 7.199219 10.800781 10.398438 11.601562 10.398438zM11.601562 8L14.800781 8 14.800781 9.601562 11.601562 9.601562zM5.601562 11.199219L6.398438 11.199219 6.398438 10.398438 6.800781 10.398438 6.800781 11.199219 7.601562 11.199219 7.601562 10.398438 8 10.398438 8 11.199219 8.800781 11.199219 8.800781 10.398438 9.601562 10.398438 9.601562 7.199219 8.800781 7.199219 8.800781 6.398438 8 6.398438 8 7.199219 7.601562 7.199219 7.601562 6.398438 6.800781 6.398438 6.800781 7.199219 6.398438 7.199219 6.398438 6.398438 5.601562 6.398438 5.601562 7.199219 4.800781 7.199219 4.800781 10.398438 5.601562 10.398438zM5.601562 8L8.800781 8 8.800781 9.601562 5.601562 9.601562zM8.800781 12C8.800781 12.222656 8.621094 12.398438 8.398438 12.398438 8.179688 12.398438 8 12.222656 8 12 8 11.777344 8.179688 11.601562 8.398438 11.601562 8.621094 11.601562 8.800781 11.777344 8.800781 12zM3.199219 15.601562C3.199219 15.820312 3.019531 16 2.800781 16 2.578125 16 2.398438 15.820312 2.398438 15.601562 2.398438 15.378906 2.578125 15.199219 2.800781 15.199219 3.019531 15.199219 3.199219 15.378906 3.199219 15.601562zM7.601562 12C7.601562 12.222656 7.421875 12.398438 7.199219 12.398438 6.980469 12.398438 6.800781 12.222656 6.800781 12 6.800781 11.777344 6.980469 11.601562 7.199219 11.601562 7.421875 11.601562 7.601562 11.777344 7.601562 12zM6.398438 12C6.398438 12.222656 6.222656 12.398438 6 12.398438 5.777344 12.398438 5.601562 12.222656 5.601562 12 5.601562 11.777344 5.777344 11.601562 6 11.601562 6.222656 11.601562 6.398438 11.777344 6.398438 12zM5.199219 14.800781C4.980469 14.800781 4.800781 14.980469 4.800781 15.199219 4.800781 15.421875 4.980469 15.601562 5.199219 15.601562L5.601562 15.601562 5.601562 16.398438 8.800781 16.398438 8.800781 15.601562 9.199219 15.601562C9.421875 15.601562 9.601562 15.421875 9.601562 15.199219 9.601562 14.980469 9.421875 14.800781 9.199219 14.800781L8.800781 14.800781 8.800781 14.398438 9.199219 14.398438C9.421875 14.398438 9.601562 14.222656 9.601562 14 9.601562 13.777344 9.421875 13.601562 9.199219 13.601562L8.800781 13.601562 8.800781 12.800781 5.601562 12.800781 5.601562 13.601562 5.199219 13.601562C4.980469 13.601562 4.800781 13.777344 4.800781 14 4.800781 14.222656 4.980469 14.398438 5.199219 14.398438L5.601562 14.398438 5.601562 14.800781zM6.398438 13.601562L8 13.601562 8 15.601562 6.398438 15.601562zM14.800781 12C14.800781 12.222656 14.621094 12.398438 14.398438 12.398438 14.179688 12.398438 14 12.222656 14 12 14 11.777344 14.179688 11.601562 14.398438 11.601562 14.621094 11.601562 14.800781 11.777344 14.800781 12zM13.601562 12C13.601562 12.222656 13.421875 12.398438 13.199219 12.398438 12.980469 12.398438 12.800781 12.222656 12.800781 12 12.800781 11.777344 12.980469 11.601562 13.199219 11.601562 13.421875 11.601562 13.601562 11.777344 13.601562 12zM17.601562 16C17.601562 16.222656 17.421875 16.398438 17.199219 16.398438 16.980469 16.398438 16.800781 16.222656 16.800781 16 16.800781 15.777344 16.980469 15.601562 17.199219 15.601562 17.421875 15.601562 17.601562 15.777344 17.601562 16zM18.800781 16C18.800781 16.222656 18.621094 16.398438 18.398438 16.398438 18.179688 16.398438 18 16.222656 18 16 18 15.777344 18.179688 15.601562 18.398438 15.601562 18.621094 15.601562 18.800781 15.777344 18.800781 16zM20 16C20 16.222656 19.820312 16.398438 19.601562 16.398438 19.378906 16.398438 19.199219 16.222656 19.199219 16 19.199219 15.777344 19.378906 15.601562 19.601562 15.601562 19.820312 15.601562 20 15.777344 20 16zM21.199219 16C21.199219 16.222656 21.019531 16.398438 20.800781 16.398438 20.578125 16.398438 20.398438 16.222656 20.398438 16 20.398438 15.777344 20.578125 15.601562 20.800781 15.601562 21.019531 15.601562 21.199219 15.777344 21.199219 16zM12.398438 12C12.398438 12.222656 12.222656 12.398438 12 12.398438 11.777344 12.398438 11.601562 12.222656 11.601562 12 11.601562 11.777344 11.777344 11.601562 12 11.601562 12.222656 11.601562 12.398438 11.777344 12.398438 12zM11.199219 14.800781C10.980469 14.800781 10.800781 14.980469 10.800781 15.199219 10.800781 15.421875 10.980469 15.601562 11.199219 15.601562L11.601562 15.601562 11.601562 16.398438 14.800781 16.398438 14.800781 15.601562 15.199219 15.601562C15.421875 15.601562 15.601562 15.421875 15.601562 15.199219 15.601562 14.980469 15.421875 14.800781 15.199219 14.800781L14.800781 14.800781 14.800781 14.398438 15.199219 14.398438C15.421875 14.398438 15.601562 14.222656 15.601562 14 15.601562 13.777344 15.421875 13.601562 15.199219 13.601562L14.800781 13.601562 14.800781 12.800781 11.601562 12.800781 11.601562 13.601562 11.199219 13.601562C10.980469 13.601562 10.800781 13.777344 10.800781 14 10.800781 14.222656 10.980469 14.398438 11.199219 14.398438L11.601562 14.398438 11.601562 14.800781zM12.398438 13.601562L14 13.601562 14 15.601562 12.398438 15.601562zM12.398438 13.601562"/>
</svg>

<svg xmlns="http://www.w3.org/2000/svg" width="32" height="32" viewBox="0 0 24 24">
    <path d="M3.2 16.8a.4.4 0 1 1-.801-.003.4.4 0 0 1 .8.004zm0 0M22.8 6.398a.401.401 0 1 1 0 0zm0 0M22.8 16.8a.401.401 0 1 1-.801-.004.401.401 0 0 1 .802.005zm0 0"/>
    <path d="M24 4.8H2V3.603a.401.401 0 0 0-.398-.403H.398a.401.401 0 0 0 0 .801H1.2v2H0v2.398h1.2v.403H0v2.398h1.2v.403H0V14h1.2v6.398a.401.401 0 0 0 .8 0v-2h2.398V20h10.403v-1.602H24zm-22 2h.8v.802H2zm-1.2.802V6.8h.4v.8zm1.2 2h.8v.796H2zm-1.2.796v-.796h.4v.796zm1.2 2h.8v.801H2zM.8 13.2v-.8h.4v.8zm13.2 6h-.398v-.398H12.8v.398h-.403v-.398h-.796v.398h-.403v-.398h-.8v.398H10v-.398h-.8v.398h-.4v-.398H8v.398h-.398v-.398H6.8v.398h-.403v-.398h-.796v.398h-.403v-.8H14zm9.2-1.597H2V14h1.602v-2.398H2v-.403h1.602V8.801H2v-.403h1.602V6H2v-.398h21.2zm0 0"/>
    <path d="M20.398 6.398h.801v8.403h-.8zm0 0M19.2 6.398h.8v8.403h-.8zm0 0M18 6.398h.8v8.403H18zm0 0M16.8 6.398h.802v8.403H16.8zm0 0M11.602 11.2h.796v-.802h.403v.801h.8v-.8H14v.8h.8v-.8h.802v-3.2H14.8v-.8H14v.8h-.398v-.8H12.8v.8h-.403v-.8h-.796v.8H10.8v3.2h.8zm0-3.2H14.8v1.602h-3.2zm0 0M5.602 11.2h.796v-.802h.403v.801h.8v-.8H8v.8h.8v-.8h.802v-3.2H8.8v-.8H8v.8h-.398v-.8H6.8v.8h-.403v-.8h-.796v.8H4.8v3.2h.8zm0-3.2H8.8v1.602H5.6zm0 0M8.8 12c0 .223-.179.398-.402.398a.398.398 0 1 1 0-.796c.223 0 .403.175.403.398zm0 0M3.2 15.602a.4.4 0 1 1-.801-.004.4.4 0 0 1 .8.004zm0 0M7.602 12c0 .223-.18.398-.403.398a.398.398 0 1 1 0-.796c.223 0 .403.175.403.398zm0 0M6.398 12a.395.395 0 0 1-.398.398.395.395 0 0 1-.398-.398c0-.223.175-.398.398-.398.223 0 .398.175.398.398zm0 0M5.2 14.8a.4.4 0 0 0 0 .802h.402v.796H8.8v-.796h.398a.401.401 0 0 0 0-.8l-.398-.001v-.403h.398a.398.398 0 1 0 0-.796h-.398V12.8H5.6v.8H5.2a.398.398 0 1 0 0 .797h.403v.403zm1.198-1.198H8v2H6.398zm0 0M14.8 12c0 .223-.179.398-.402.398a.398.398 0 1 1 0-.796c.223 0 .403.175.403.398zm0 0M13.602 12c0 .223-.18.398-.403.398a.398.398 0 1 1 0-.796c.223 0 .403.175.403.398zm0 0M17.602 16c0 .223-.18.398-.403.398a.398.398 0 1 1 0-.796c.223 0 .403.175.403.398zm0 0M18.8 16c0 .223-.179.398-.402.398a.398.398 0 1 1 0-.796c.223 0 .403.175.403.398zm0 0M20 16c0 .223-.18.398-.398.398a.398.398 0 1 1 0-.796c.218 0 .398.175.398.398zm0 0M21.2 16c0 .223-.18.398-.4.398a.398.398 0 1 1 0-.796c.22 0 .4.175.4.398zm0 0M12.398 12a.395.395 0 0 1-.398.398.395.395 0 0 1-.398-.398c0-.223.175-.398.398-.398.223 0 .398.175.398.398zm0 0M11.2 14.8a.4.4 0 0 0 0 .802h.402v.796H14.8v-.796h.398a.401.401 0 0 0 0-.8l-.398-.001v-.403h.398a.398.398 0 1 0 0-.796h-.398V12.8h-3.2v.8H11.2a.398.398 0 1 0 0 .797h.403v.403zm1.198-1.198H14v2h-1.602zm0 0"/>
</svg>
